Papirus/22x22/panel/sflphone-offline.svg

<?xml version="1.0" encoding="UTF-8" standalone="no"?>
<svg xmlns:dc="http://purl.org/dc/elements/1.1/" xmlns:cc="http://creativecommons.org/ns#" xmlns:rdf="http://www.w3.org/1999/02/22-rdf-syntax-ns#" xmlns:svg="http://www.w3.org/2000/svg" xmlns="http://www.w3.org/2000/svg" version="1.1" id="svg2" width="22" height="22" viewBox="0 0 32.65625 32.65625">
    <metadata id="metadata16">
        <rdf:RDF>
            <cc:Work rdf:about="">
                <dc:format>
                    image/svg+xml
                </dc:format>
                <dc:type rdf:resource="http://purl.org/dc/dcmitype/StillImage"/>
                <dc:title/>
            </cc:Work>
        </rdf:RDF>
    </metadata>
    <path id="path4" transform="scale(1.4843749,1.4843749)" d="M 11.533203 3.0039062 C 11.102045 2.9911062 11.015257 3.0060296 10.890625 3.1171875 C 10.687172 3.2950401 10.69734 3.6774858 10.908203 3.8398438 C 11.022056 3.924728 11.10876 3.9443615 11.611328 3.9726562 C 13.097476 4.0575405 14.232646 4.450133 15.330078 5.2558594 C 16.646457 6.2192278 17.471287 7.5613453 17.783203 9.2421875 C 17.862698 9.6706507 17.903414 10.028869 17.929688 10.583984 C 17.945856 10.945753 17.958028 11.026172 18.005859 11.119141 C 18.156765 11.400741 18.59807 11.442017 18.798828 11.191406 C 18.904597 11.062059 18.917301 10.961808 18.898438 10.509766 C 18.847911 9.1853024 18.554431 7.9812974 18.039062 6.96875 C 17.66921 6.2431921 17.321907 5.7752979 16.693359 5.1582031 C 16.021696 4.5047294 15.514303 4.1468624 14.720703 3.7675781 C 13.914303 3.3829044 13.179005 3.1677985 12.269531 3.0566406 C 12.089658 3.0357564 11.758214 3.0113168 11.533203 3.0039062 z M 5.890625 3.2695312 C 5.7707092 3.2585839 5.6542541 3.2591543 5.5683594 3.2773438 L 5.5664062 3.2773438 C 5.315122 3.3292174 5.0001278 3.5119809 4.3183594 4.0078125 C 3.9087594 4.307602 3.3468859 4.8455737 3.2148438 5.0625 C 2.9083174 5.5765211 2.9256071 6.0131149 3.2988281 7.0175781 C 3.9388282 8.7401887 4.8740419 10.399932 6.1035156 12.001953 C 8.4566947 15.067216 11.420812 17.29611 15.132812 18.791016 C 15.605739 18.982342 15.760333 19.014283 16.130859 18.996094 C 16.580207 18.97521 16.92066 18.838801 17.402344 18.482422 C 17.933881 18.087643 18.695257 17.163059 18.890625 16.669922 C 19.075888 16.202385 19.026816 15.778045 18.751953 15.447266 C 18.595658 15.264024 17.443244 14.343788 16.904297 13.974609 C 16.494697 13.695704 15.861344 13.311599 15.570312 13.164062 C 15.186986 12.972736 14.804862 12.940495 14.431641 13.064453 C 14.137914 13.162811 14.041744 13.246616 13.613281 13.773438 C 13.390965 14.042238 13.18643 14.285688 13.160156 14.308594 C 13.131188 14.332173 13.038077 14.382801 12.951172 14.421875 C 12.604898 14.579517 12.131485 14.484685 11.357422 14.107422 C 10.754474 13.815717 10.220203 13.446613 9.6152344 12.904297 C 9.0998659 12.444844 8.5800941 11.843816 8.2890625 11.376953 C 7.9138204 10.775353 7.6276947 9.9943316 7.625 9.5625 C 7.625 9.3765631 7.7018855 9.1125788 7.796875 8.9785156 C 7.8339276 8.9246209 8.0690283 8.7202212 8.3203125 8.5214844 C 8.9468388 8.0283475 9.0869908 7.8744781 9.171875 7.5800781 C 9.2540645 7.3065623 9.1656864 6.9360263 8.9042969 6.4375 C 8.4468653 5.5644052 7.0494434 3.817577 6.546875 3.4921875 C 6.4646855 3.4403138 6.3208104 3.3688801 6.2285156 3.3378906 C 6.1331893 3.3042064 6.0105408 3.2804786 5.890625 3.2695312 z M 11.779297 4.8925781 C 11.630244 4.9154834 11.543325 4.9756571 11.474609 5.0800781 L 11.472656 5.0800781 C 11.346004 5.2687097 11.360813 5.4963151 11.511719 5.6640625 C 11.609403 5.7752204 11.75235 5.826772 12.011719 5.8476562 C 12.728519 5.9042457 13.513991 6.1334646 14.046875 6.4433594 C 14.665317 6.8024331 15.172516 7.3181804 15.521484 7.9433594 C 15.828011 8.4910647 16.005859 9.1962659 16.005859 9.8652344 C 16.005859 10.299087 16.066079 10.458215 16.269531 10.558594 C 16.391468 10.620573 16.61177 10.626092 16.714844 10.574219 C 16.809833 10.52504 16.92072 10.407891 16.955078 10.320312 C 16.992131 10.227344 16.991389 9.666575 16.957031 9.359375 C 16.859347 8.5199644 16.574619 7.7365862 16.117188 7.0703125 C 15.302703 5.887323 14.059794 5.1600875 12.455078 4.9296875 C 12.13912 4.8832033 11.92835 4.8696729 11.779297 4.8925781 z M 12.339844 6.8242188 C 12.288981 6.8300293 12.253651 6.8429349 12.203125 6.8671875 C 11.936346 7.0012507 11.862014 7.3655069 12.054688 7.5898438 C 12.160456 7.7111069 12.258595 7.7467562 12.583984 7.7851562 C 13.276532 7.8680194 13.684874 8.1209539 13.917969 8.609375 C 14.026432 8.8391013 14.090642 9.087722 14.125 9.4414062 C 14.153968 9.7075115 14.19366 9.8054691 14.320312 9.8984375 C 14.494797 10.029806 14.781879 10.024218 14.9375 9.8847656 C 15.1039 9.7352077 15.133911 9.5551558 15.0625 9.0957031 C 14.956732 8.3910294 14.716586 7.8990249 14.277344 7.4941406 C 13.93646 7.1815511 13.536383 6.9873694 13.015625 6.8789062 C 12.907627 6.8560992 12.705762 6.8336884 12.568359 6.8261719 L 12.566406 6.8261719 C 12.456961 6.8199039 12.390272 6.8184579 12.339844 6.8242188 z " style="fill:#ffffff;fill-opacity:1;stroke:none;opacity:0.3"/>
</svg>

<?xml version="1.0" encoding="UTF-8" standalone="no"?>
<svg id="svg2" xmlns:rdf="http://www.w3.org/1999/02/22-rdf-syntax-ns#" xmlns="http://www.w3.org/2000/svg" height="22" viewBox="0 0 32.65625 32.65625" width="22" version="1.1" xmlns:cc="http://creativecommons.org/ns#" xmlns:dc="http://purl.org/dc/elements/1.1/">
 <metadata id="metadata16">
  <rdf:RDF>
   <cc:Work rdf:about="">
    <dc:format>image/svg+xml</dc:format>
    <dc:type rdf:resource="http://purl.org/dc/dcmitype/StillImage"/>
    <dc:title/>
   </cc:Work>
  </rdf:RDF>
 </metadata>
 <path id="path4" opacity=".3" d="m11.533 3.0039c-0.431-0.0128-0.518 0.0021-0.642 0.1133-0.204 0.1778-0.194 0.5603 0.017 0.7226 0.114 0.0849 0.201 0.1046 0.703 0.1329 1.486 0.0848 2.622 0.4774 3.719 1.2832 1.316 0.9633 2.141 2.3054 2.453 3.9863 0.08 0.4285 0.12 0.7868 0.147 1.3418 0.016 0.362 0.028 0.442 0.076 0.535 0.151 0.282 0.592 0.323 0.793 0.072 0.106-0.129 0.118-0.229 0.099-0.681-0.05-1.3247-0.344-2.5287-0.859-3.5412-0.37-0.7256-0.717-1.1935-1.346-1.8106-0.671-0.6535-1.179-1.0113-1.972-1.3906-0.807-0.3847-1.542-0.5998-2.451-0.711-0.18-0.0208-0.512-0.0453-0.737-0.0527zm-5.6424 0.2656c-0.1199-0.0109-0.2363-0.0103-0.3222 0.0078h-0.002c-0.2513 0.0519-0.5663 0.2347-1.248 0.7305-0.4096 0.2998-0.9715 0.8378-1.1036 1.0547-0.3065 0.514-0.2892 0.9506 0.084 1.9551 0.64 1.7226 1.5752 3.3824 2.8047 4.9844 2.3532 3.065 5.3175 5.294 9.0295 6.789 0.473 0.191 0.627 0.223 0.998 0.205 0.449-0.021 0.79-0.157 1.271-0.514 0.532-0.394 1.293-1.319 1.489-1.812 0.185-0.468 0.136-0.892-0.139-1.223-0.156-0.183-1.309-1.103-1.848-1.472-0.409-0.279-1.043-0.663-1.334-0.811-0.383-0.191-0.765-0.224-1.138-0.1-0.294 0.099-0.39 0.183-0.819 0.709-0.222 0.269-0.427 0.513-0.453 0.536-0.029 0.023-0.122 0.074-0.209 0.113-0.346 0.158-0.82 0.063-1.594-0.315-0.603-0.291-1.137-0.66-1.7418-1.203-0.5153-0.459-1.0351-1.06-1.3261-1.527-0.3753-0.602-0.6614-1.3827-0.6641-1.8145 0-0.1859 0.0769-0.4499 0.1719-0.584 0.037-0.0539 0.2721-0.2583 0.5234-0.457 0.6265-0.4932 0.7667-0.647 0.8516-0.9414 0.0822-0.2735-0.0062-0.6441-0.2676-1.1426-0.4574-0.8731-1.8549-2.6199-2.3574-2.9453-0.0822-0.0519-0.2261-0.1233-0.3184-0.1543-0.0953-0.0337-0.218-0.0574-0.3379-0.0684zm5.8884 1.6231c-0.149 0.0229-0.236 0.0831-0.304 0.1875h-0.002c-0.127 0.1886-0.112 0.4162 0.039 0.584 0.097 0.1111 0.24 0.1627 0.5 0.1836 0.717 0.0565 1.502 0.2858 2.035 0.5957 0.618 0.359 1.126 0.8748 1.474 1.5 0.307 0.5477 0.485 1.2529 0.485 1.9218 0 0.4338 0.06 0.5928 0.264 0.6938 0.121 0.062 0.342 0.067 0.445 0.015 0.095-0.049 0.206-0.166 0.24-0.254 0.037-0.093 0.036-0.6534 0.002-0.9606-0.098-0.8394-0.382-1.6228-0.84-2.2891-0.814-1.183-2.057-1.9102-3.662-2.1406-0.316-0.0465-0.527-0.06-0.676-0.0371zm0.561 1.9316c-0.051 0.0058-0.086 0.0187-0.137 0.043-0.267 0.1341-0.341 0.4983-0.148 0.7226 0.105 0.1213 0.204 0.157 0.529 0.1954 0.693 0.0828 1.101 0.3358 1.334 0.8242 0.108 0.2297 0.173 0.4783 0.207 0.832 0.029 0.2661 0.069 0.3641 0.195 0.457 0.175 0.1316 0.462 0.1256 0.618-0.0136 0.166-0.1496 0.196-0.3296 0.124-0.7891-0.105-0.7047-0.345-1.1967-0.785-1.6016-0.341-0.3125-0.741-0.5067-1.261-0.6152-0.108-0.0228-0.31-0.0452-0.448-0.0527h-0.002c-0.109-0.0063-0.176-0.0077-0.226-0.002z" transform="scale(1.4844)" fill="#fff"/>
</svg>
